X: 1
T: Giardini's Minuet
Z: 2008 John Chambers <jc@trillian.mit.edu>
S: handwritten MS of unknown origin
M: 3/4
L: 1/8
K: D
[| A4 d2 | (3FGA (3GAB A2 | E4 G2 | (3FED (3EDC D2 | Ad fg az | Ac ef gz | (3fed a2 f2 | e6 |]
[| E4 G4 | (3CDE (3DEF E2 | A4 d2 | (3FGA (3GAB A2 | f2 dA Fz | d2 AF Dz | (3EFG F2 E2 | D6 |]
